X:1
P: Jig Runrig
I: Jig Runrig, Jig, D
C:Fergie MacDonald
B:Fergie's Collection (1998)
Z:Nigel Gatherer
M:6/8
R:Jig
L:1/8
K:D
f/e/|"D"d2 d "G"BAA|"D"FAA "G"BAA|"G"Bdd "D"AAA|"E"fee "A"efe|"D"d2 d "G"BAA|"D"FAA BAA|"G"Bdd "D"Aff|"A"edd "D"d2 :|
g|"D"faa "A"eaa|"D"daa "A"caa|"G"Bdd "D"AAA|"E"fee "A"e2 g|"D"faa "A"eaa|"Bm"daa "A"caa|"G"Bdd "D"Aff|"A"edd "D"d2 g|
"D"faa "A"eaa|"Bm"daa "A/C#"caa|"G"Bdd "D/F#"AAA|"E"fee "A"efe|"D"d2 d BAA|"D"FAA BAA|"G"Bdd "D"Aff|"A"edd "D"d2 |]
